app/images/curve-low.svg

<svg width="125" height="31" viewBox="0 0 125 31" fill="none" xmlns="http://www.w3.org/2000/svg">
<path d="M14.2332 8.73789H15.1632V14.9579H18.5932V15.8379H14.2332V8.73789ZM21.6455 15.9379C21.2655 15.9379 20.9155 15.8712 20.5955 15.7379C20.2755 15.5979 19.9988 15.4112 19.7655 15.1779C19.5321 14.9446 19.3488 14.6712 19.2155 14.3579C19.0888 14.0379 19.0255 13.6979 19.0255 13.3379C19.0255 12.9779 19.0888 12.6412 19.2155 12.3279C19.3488 12.0079 19.5321 11.7312 19.7655 11.4979C19.9988 11.2646 20.2755 11.0812 20.5955 10.9479C20.9155 10.8079 21.2655 10.7379 21.6455 10.7379C22.0188 10.7379 22.3655 10.8079 22.6855 10.9479C23.0055 11.0812 23.2821 11.2646 23.5155 11.4979C23.7488 11.7312 23.9288 12.0079 24.0555 12.3279C24.1888 12.6412 24.2555 12.9779 24.2555 13.3379C24.2555 13.6979 24.1888 14.0379 24.0555 14.3579C23.9288 14.6712 23.7488 14.9446 23.5155 15.1779C23.2821 15.4112 23.0055 15.5979 22.6855 15.7379C22.3655 15.8712 22.0188 15.9379 21.6455 15.9379ZM21.6455 15.1379C21.9055 15.1379 22.1421 15.0912 22.3555 14.9979C22.5688 14.9046 22.7488 14.7779 22.8955 14.6179C23.0488 14.4512 23.1655 14.2612 23.2455 14.0479C23.3321 13.8279 23.3755 13.5912 23.3755 13.3379C23.3755 13.0912 23.3321 12.8579 23.2455 12.6379C23.1655 12.4179 23.0488 12.2279 22.8955 12.0679C22.7488 11.9012 22.5688 11.7712 22.3555 11.6779C22.1421 11.5846 21.9055 11.5379 21.6455 11.5379C21.3855 11.5379 21.1488 11.5846 20.9355 11.6779C20.7221 11.7712 20.5388 11.9012 20.3855 12.0679C20.2321 12.2279 20.1121 12.4179 20.0255 12.6379C19.9455 12.8579 19.9055 13.0912 19.9055 13.3379C19.9055 13.5912 19.9455 13.8279 20.0255 14.0479C20.1121 14.2612 20.2321 14.4512 20.3855 14.6179C20.5388 14.7779 20.7221 14.9046 20.9355 14.9979C21.1488 15.0912 21.3855 15.1379 21.6455 15.1379ZM28.4704 12.2479L27.2404 15.8379H26.4804L24.7804 10.8379H25.6804L26.8904 14.4879L28.1404 10.8379H28.8004L30.0504 14.4879L31.2604 10.8379H32.1704L30.4704 15.8379H29.7104L28.4704 12.2479Z" fill="#F66A0A"/>
<path opacity="0.3" d="M33.9595 22.8379C23.1957 30.2579 14.543 30.8379 14.543 30.8379H124.793C124.793 30.8379 116.14 30.2579 105.377 22.8379C94.6127 15.4179 82.0128 0.837891 69.668 0.837891C57.3233 0.837891 44.7234 15.4179 33.9595 22.8379Z" fill="#037DD6"/>
<mask id="mask0_610_10592" style="mask-type:alpha" maskUnits="userSpaceOnUse" x="14" y="0" width="111" height="31">
<path d="M33.9595 22.7051C23.1957 30.125 14.543 30.7051 14.543 30.7051H124.793C124.793 30.7051 116.14 30.125 105.377 22.7051C94.6127 15.2851 82.0128 0.705078 69.668 0.705078C57.3233 0.705078 44.7234 15.2851 33.9595 22.7051Z" fill="#EAF6FF"/>
</mask>
<g mask="url(#mask0_610_10592)">
<rect x="12.793" y="16.8379" width="20.7061" height="17.3027" fill="#F66A0A" stroke="white" stroke-width="2"/>
</g>
</svg>

<svg width="125" height="31" fill="none" xmlns="http://www.w3.org/2000/svg"><path d="M14.233 8.738h.93v6.22h3.43v.88h-4.36v-7.1Zm7.412 7.2c-.38 0-.73-.067-1.05-.2a2.679 2.679 0 0 1-.83-.56 2.569 2.569 0 0 1-.55-.82c-.126-.32-.19-.66-.19-1.02s.064-.697.19-1.01a2.54 2.54 0 0 1 .55-.83c.234-.233.51-.417.83-.55.32-.14.67-.21 1.05-.21.374 0 .72.07 1.04.21.32.133.597.317.83.55.234.233.414.51.54.83.134.313.2.65.2 1.01s-.066.7-.2 1.02a2.44 2.44 0 0 1-.54.82 2.68 2.68 0 0 1-.83.56c-.32.133-.666.2-1.04.2Zm0-.8c.26 0 .497-.047.71-.14.214-.093.394-.22.54-.38.154-.167.27-.357.35-.57.087-.22.13-.457.13-.71 0-.247-.043-.48-.13-.7-.08-.22-.196-.41-.35-.57a1.52 1.52 0 0 0-.54-.39 1.754 1.754 0 0 0-.71-.14c-.26 0-.496.047-.71.14a1.619 1.619 0 0 0-.55.39c-.153.16-.273.35-.36.57-.08.22-.12.453-.12.7 0 .253.04.49.12.71.087.213.207.403.36.57.154.16.337.287.55.38.214.093.45.14.71.14Zm6.825-2.89-1.23 3.59h-.76l-1.7-5h.9l1.21 3.65 1.25-3.65h.66l1.25 3.65 1.21-3.65h.91l-1.7 5h-.76l-1.24-3.59Z" fill="#F66A0A"/><path opacity=".3" d="M33.96 22.838c-10.764 7.42-19.417 8-19.417 8h110.25s-8.653-.58-19.416-8c-10.764-7.42-23.364-22-35.709-22-12.345 0-24.945 14.58-35.709 22Z" fill="#037DD6"/><mask id="a" style="mask-type:alpha" maskUnits="userSpaceOnUse" x="14" y="0" width="111" height="31"><path d="M33.96 22.705c-10.764 7.42-19.417 8-19.417 8h110.25s-8.653-.58-19.416-8c-10.764-7.42-23.364-22-35.709-22-12.345 0-24.945 14.58-35.709 22Z" fill="#EAF6FF"/></mask><g mask="url(#a)"><path fill="#F66A0A" stroke="#fff" stroke-width="2" d="M12.793 16.838h20.706v17.303H12.793z"/></g></svg>
